X:1
T:Little Prelude in C Minor
T:Little Prelude in C Minor
T:Little Prelude No. 2 in C Minor
T:BWV 934
T:J.S Bach
T:Composed 1717–1720
T:Composed 1717–1720
Z:Composed 1717–1720
%%score { ( 1 3 ) | 2 }
L:1/8
Q:1/4=144
M:3/4
K:Eb
V:1 treble nm="Piano"
V:3 treble 
V:2 bass 
V:1
"^Vivace" cdeGdF |{F}PEDCEGc | Fedfac |{c} P=B=AGBdf | ecGc=ec | fcgcac | dBFBdB | eBfBgB | %8
 cAGAce | BGFGBe | AGFGAE | DEFDB,A, | G,B,EB,G,B, | A,EB,ECE | B,ECE_DE | C2 E2 A2- | A2 F2 d2- | %17
 d2 B2 g2- | gfe=dcd | e6 :: gabgbf | =e=dcegb | af_dg=ec | BGAcf=A | Bdf_agf | gedc=Bf | edce=AG | %27
 ^FG=AFDA | dG^FcBG | C^FG=AEC | B,D^FG=A,F | x2"^()" x/ x/ x3- | B_d=ecgB | ABcAF=E | FA=BGdF | %35
 EFGEC=B, | CE^FD=AC | =B,D=F_AG=B | dfecG=B | !fermata!c6 :| %40
V:2
 C,2 C2 G,2 | A,2 A,,2 z2 | A,2 F,2 D,2 | G,2 G,,2 z2 | C,2 C2 _B,2 | A,2 G,2 F,2 | B,,2 B,2 A,2 | %7
 G,2 F,2 E,2 | A,2 C2 F,2 | G,2 B,2 E,2 | F,2 A,2 F,2 | B,2 B,,2 D,2 | E,2 E,,2 _D,2 | %13
 C,2 B,,2 A,,2 | G,,2 F,,2 E,,2 | A,,E,A,G,F,E, | D,F,B,A,G,F, | G,B,E_DCB, | A,2 B,2 B,,2 | %19
 E,3 B, E2 :: E,2 E2 _D2 | C2 =E,2 C,2 | F,2 B,,2 C,2 | F,,2 F,2 E,2 | D,2 B,,2 D,2 | E,2 E2 D2 | %26
 C2 =A,2 C2 | D2 D,2 C,2 | B,,2 =A,,2 G,,2 | E,2 D,2 C,2 | D,2 C,2 D,2 | G,,D,G,B,_DF, | %32
 =E,2 C,2 E,2 | F,G, A,2 z2 | =B,,2 G,,2 B,,2 | C,D, E,2 z2 | ^F,,2 D,,2 F,,2 | G,,2 D,2 E,2 | %38
 A,,2 !fermata!F,,2 G,,2 | C,3 G, !fermata!C2 :| %40
V:3
 x6 | x/ x/8 x/8 x/8 x/8 x5 | x6 | x/ x/8 x/8 x/8 x/8 x5 | x6 | x6 | x6 | x6 | x6 | x6 | x6 | x6 | %12
 x6 | x6 | x6 | x6 | x6 | x6 | x6 | z B G4 :: x6 | x6 | x6 | x6 | x6 | x6 | x6 | x6 | x6 | x6 | %30
 x6 | G2 MB4 | x6 | x6 | x6 | x6 | x6 | x6 | x6 | z G !fermata!E4 :| %40

